X: 9
T: Old Grey Goose, The
Z: UPipes & harp
S: https://thesession.org/tunes/241#setting51009
R: jig
M: 6/8
L: 1/8
K: Emin
EF|:GBG FAF|GEE EFE|DFA dAG|FDD DEF|
GFG AGA|BAB gfg|edB BAF |1 GEE E2 F:|2 GEE E2 D||
|:GFG dBG|GFG dBG|~A3 ecA|AEA ecA|
GFG dBG|GBd gfg|edB BAF|1 GEE E2 D:|2 GEE E2 d||
|:efe edB|def gfe|fdd add|fag fed|
efe edB|def gfg|edB BAF|1 GEE E2 d:|2 GEE E2 c||
|BGG AFF|GEE E2c|BGG AdA|FDD D2c|
BGG AFF|GEE gfg|edB BAF|GEE E2 c|
BGG AFF|GEE E2c|BGB dAG|FDD D2c|
BGG AFF|GEE gfg|edB BAF|GEE E2 f|
|:gbg faf|gee e2f|gbg fag|fdd def|
gbg fef|def gfe|edB BAF|GEE E2 f:|
|:gdB BAB|GEE Eef|gdB dAG|FDD DEF|
GFG AGA|BAB gfg|edB BAF|1 GEE E2 f:|2 GEE E3||

